app/assets/images/icons/active/car.svg

<svg width="32" height="232" viewBox="0 0 32 232" xmlns="http://www.w3.org/2000/svg" xmlns:sketch="http://www.bohemiancoding.com/sketch/ns"><title>car</title><g sketch:type="MSPage" fill="none"><path d="M26.368 136.103h-.471l-2-5.605c-.387-.967-.944-1.764-1.91-1.764h-12.123c-.967 0-1.552.85-1.903 1.764l-2.004 5.605h-.316c-1.183 0-2.141.954-2.141 2.137v6.85h1.815c-.006.558.061 1.089.061 1.343v.123c0 1.358 1.117 2.444 2.488 2.444 1.369 0 2.482-1.086 2.482-2.444v-.123l.06-.951v-.392h11.034l.019 1.343v.123c0 1.358 1.112 2.444 2.479 2.444 1.381 0 2.492-1.086 2.492-2.444v-.123c0-.254.066-.785.061-1.343h2.009v-6.85c0-1.183-.961-2.137-2.132-2.137zm-17.293-.279l1.511-4.648h10.965l1.51 4.648h-13.986zm.83 4.978c0 1.118-.905 2.02-2.012 2.02-1.113 0-2.016-.902-2.016-2.02 0-1.105.903-2.004 2.016-2.004 1.107 0 2.012.899 2.012 2.004zm15.916 0c0 1.118-.897 2.02-2.01 2.02-1.107 0-2.012-.902-2.012-2.02 0-1.105.905-2.004 2.012-2.004 1.113 0 2.01.899 2.01 2.004zm0 0" fill="#206FAC" sketch:type="MSShapeGroup"/><path d="M26.368 96.103h-.471l-2-5.605c-.387-.967-.944-1.764-1.91-1.764h-12.123c-.967 0-1.552.85-1.903 1.764l-2.004 5.605h-.316c-1.183 0-2.141.954-2.141 2.137v6.85h1.815c-.006.558.061 1.089.061 1.343v.123c0 1.358 1.117 2.444 2.488 2.444 1.369 0 2.482-1.086 2.482-2.444v-.123l.06-.951v-.392h11.034l.019 1.343v.123c0 1.358 1.112 2.444 2.479 2.444 1.381 0 2.492-1.086 2.492-2.444v-.123c0-.254.066-.785.061-1.343h2.009v-6.85c0-1.183-.961-2.137-2.132-2.137zm-17.293-.279l1.511-4.648h10.965l1.51 4.648h-13.986zm.83 4.978c0 1.118-.905 2.02-2.012 2.02-1.113 0-2.016-.902-2.016-2.02 0-1.105.903-2.004 2.016-2.004 1.107 0 2.012.899 2.012 2.004zm15.916 0c0 1.118-.897 2.02-2.01 2.02-1.107 0-2.012-.902-2.012-2.02 0-1.105.905-2.004 2.012-2.004 1.113 0 2.01.899 2.01 2.004zm0 0" fill="#fff" sketch:type="MSShapeGroup"/><path d="M26.368 56.103h-.471l-2-5.605c-.387-.967-.944-1.764-1.91-1.764h-12.123c-.967 0-1.552.85-1.903 1.764l-2.004 5.605h-.316c-1.183 0-2.141.954-2.141 2.137v6.85h1.815c-.006.558.061 1.089.061 1.343v.123c0 1.358 1.117 2.444 2.488 2.444 1.369 0 2.482-1.086 2.482-2.444v-.123l.06-.951v-.392h11.034l.019 1.343v.123c0 1.358 1.112 2.444 2.479 2.444 1.381 0 2.492-1.086 2.492-2.444v-.123c0-.254.066-.785.061-1.343h2.009v-6.85c0-1.183-.961-2.137-2.132-2.137zm-17.293-.279l1.511-4.648h10.965l1.51 4.648h-13.986zm.83 4.978c0 1.118-.905 2.02-2.012 2.02-1.113 0-2.016-.902-2.016-2.02 0-1.105.903-2.004 2.016-2.004 1.107 0 2.012.899 2.012 2.004zm15.916 0c0 1.118-.897 2.02-2.01 2.02-1.107 0-2.012-.902-2.012-2.02 0-1.105.905-2.004 2.012-2.004 1.113 0 2.01.899 2.01 2.004zm0 0" fill="#67737B" sketch:type="MSShapeGroup"/><path d="M26.368 16.103h-.471l-2-5.605c-.387-.967-.944-1.764-1.91-1.764h-12.123c-.967 0-1.552.85-1.903 1.764l-2.004 5.605h-.316c-1.183 0-2.141.954-2.141 2.137v6.85h1.815c-.006.558.061 1.089.061 1.343v.123c0 1.358 1.117 2.444 2.488 2.444 1.369 0 2.482-1.086 2.482-2.444v-.123l.06-.951v-.392h11.034l.019 1.343v.123c0 1.358 1.112 2.444 2.479 2.444 1.381 0 2.492-1.086 2.492-2.444v-.123c0-.254.066-.785.061-1.343h2.009v-6.85c0-1.183-.961-2.137-2.132-2.137zm-17.293-.279l1.511-4.648h10.965l1.51 4.648h-13.986zm.83 4.978c0 1.118-.905 2.02-2.012 2.02-1.113 0-2.016-.902-2.016-2.02 0-1.105.903-2.004 2.016-2.004 1.107 0 2.012.899 2.012 2.004zm15.916 0c0 1.118-.897 2.02-2.01 2.02-1.107 0-2.012-.902-2.012-2.02 0-1.105.905-2.004 2.012-2.004 1.113 0 2.01.899 2.01 2.004zm0 0" fill="#3A434E" sketch:type="MSShapeGroup"/></g></svg>

<?xml version="1.0" encoding="UTF-8" standalone="no"?>
<svg width="32px" height="232px" viewBox="0 0 32 232" version="1.1" xmlns="http://www.w3.org/2000/svg" xmlns:xlink="http://www.w3.org/1999/xlink" xmlns:sketch="http://www.bohemiancoding.com/sketch/ns">
    <title>car</title>
    <description>Created with Sketch (http://www.bohemiancoding.com/sketch)</description>
    <defs></defs>
    <g id="Transport" stroke="none" stroke-width="1" fill="none" fill-rule="evenodd" sketch:type="MSPage">
        <path d="M26.368,136.103 L25.897,136.103 L23.897,130.498 C23.51,129.531 22.953,128.734 21.987,128.734 L9.864,128.734 C8.897,128.734 8.312,129.584 7.961,130.498 L5.957,136.103 L5.641,136.103 C4.458,136.103 3.5,137.057 3.5,138.24 L3.5,145.09 L5.315,145.09 C5.309,145.648 5.376,146.179 5.376,146.433 L5.376,146.556 C5.376,147.914 6.493,149 7.864,149 C9.233,149 10.346,147.914 10.346,146.556 L10.346,146.433 C10.346,146.23 10.391,145.888 10.406,145.482 L10.406,145.09 L21.44,145.09 C21.45,145.773 21.459,146.357 21.459,146.433 L21.459,146.556 C21.459,147.914 22.571,149 23.938,149 C25.319,149 26.43,147.914 26.43,146.556 L26.43,146.433 C26.43,146.179 26.496,145.648 26.491,145.09 L28.5,145.09 L28.5,138.24 C28.5,137.057 27.539,136.103 26.368,136.103 L26.368,136.103 L26.368,136.103 L26.368,136.103 Z M9.075,135.824 L10.586,131.176 L21.551,131.176 L23.061,135.824 L9.075,135.824 L9.075,135.824 L9.075,135.824 L9.075,135.824 Z M9.905,140.802 C9.905,141.92 9,142.822 7.893,142.822 C6.78,142.822 5.877,141.92 5.877,140.802 C5.877,139.697 6.78,138.798 7.893,138.798 C9,138.798 9.905,139.697 9.905,140.802 C9.905,140.802 9.905,139.697 9.905,140.802 L9.905,140.802 L9.905,140.802 Z M25.821,140.802 C25.821,141.92 24.924,142.822 23.811,142.822 C22.704,142.822 21.799,141.92 21.799,140.802 C21.799,139.697 22.704,138.798 23.811,138.798 C24.924,138.798 25.821,139.697 25.821,140.802 L25.821,140.802 Z M25.821,140.802" id="car--white" fill="#206FAC" sketch:type="MSShapeGroup"></path>
        <path d="M26.368,96.103 L25.897,96.103 L23.897,90.498 C23.51,89.531 22.953,88.734 21.987,88.734 L9.864,88.734 C8.897,88.734 8.312,89.584 7.961,90.498 L5.957,96.103 L5.641,96.103 C4.458,96.103 3.5,97.057 3.5,98.24 L3.5,105.09 L5.315,105.09 C5.309,105.648 5.376,106.179 5.376,106.433 L5.376,106.556 C5.376,107.914 6.493,109 7.864,109 C9.233,109 10.346,107.914 10.346,106.556 L10.346,106.433 C10.346,106.23 10.391,105.888 10.406,105.482 L10.406,105.09 L21.44,105.09 C21.45,105.773 21.459,106.357 21.459,106.433 L21.459,106.556 C21.459,107.914 22.571,109 23.938,109 C25.319,109 26.43,107.914 26.43,106.556 L26.43,106.433 C26.43,106.179 26.496,105.648 26.491,105.09 L28.5,105.09 L28.5,98.24 C28.5,97.057 27.539,96.103 26.368,96.103 L26.368,96.103 L26.368,96.103 L26.368,96.103 Z M9.075,95.824 L10.586,91.176 L21.551,91.176 L23.061,95.824 L9.075,95.824 L9.075,95.824 L9.075,95.824 L9.075,95.824 Z M9.905,100.802 C9.905,101.92 9,102.822 7.893,102.822 C6.78,102.822 5.877,101.92 5.877,100.802 C5.877,99.697 6.78,98.798 7.893,98.798 C9,98.798 9.905,99.697 9.905,100.802 C9.905,100.802 9.905,99.697 9.905,100.802 L9.905,100.802 L9.905,100.802 Z M25.821,100.802 C25.821,101.92 24.924,102.822 23.811,102.822 C22.704,102.822 21.799,101.92 21.799,100.802 C21.799,99.697 22.704,98.798 23.811,98.798 C24.924,98.798 25.821,99.697 25.821,100.802 L25.821,100.802 Z M25.821,100.802" id="car--subdued-grey" fill="#FFFFFF" sketch:type="MSShapeGroup"></path>
        <path d="M26.368,56.103 L25.897,56.103 L23.897,50.498 C23.51,49.531 22.953,48.734 21.987,48.734 L9.864,48.734 C8.897,48.734 8.312,49.584 7.961,50.498 L5.957,56.103 L5.641,56.103 C4.458,56.103 3.5,57.057 3.5,58.24 L3.5,65.09 L5.315,65.09 C5.309,65.648 5.376,66.179 5.376,66.433 L5.376,66.556 C5.376,67.914 6.493,69 7.864,69 C9.233,69 10.346,67.914 10.346,66.556 L10.346,66.433 C10.346,66.23 10.391,65.888 10.406,65.482 L10.406,65.09 L21.44,65.09 C21.45,65.773 21.459,66.357 21.459,66.433 L21.459,66.556 C21.459,67.914 22.571,69 23.938,69 C25.319,69 26.43,67.914 26.43,66.556 L26.43,66.433 C26.43,66.179 26.496,65.648 26.491,65.09 L28.5,65.09 L28.5,58.24 C28.5,57.057 27.539,56.103 26.368,56.103 L26.368,56.103 L26.368,56.103 L26.368,56.103 Z M9.075,55.824 L10.586,51.176 L21.551,51.176 L23.061,55.824 L9.075,55.824 L9.075,55.824 L9.075,55.824 L9.075,55.824 Z M9.905,60.802 C9.905,61.92 9,62.822 7.893,62.822 C6.78,62.822 5.877,61.92 5.877,60.802 C5.877,59.697 6.78,58.798 7.893,58.798 C9,58.798 9.905,59.697 9.905,60.802 C9.905,60.802 9.905,59.697 9.905,60.802 L9.905,60.802 L9.905,60.802 Z M25.821,60.802 C25.821,61.92 24.924,62.822 23.811,62.822 C22.704,62.822 21.799,61.92 21.799,60.802 C21.799,59.697 22.704,58.798 23.811,58.798 C24.924,58.798 25.821,59.697 25.821,60.802 L25.821,60.802 Z M25.821,60.802" id="car--body-grey" fill="#67737B" sketch:type="MSShapeGroup"></path>
        <path d="M26.368,16.103 L25.897,16.103 L23.897,10.498 C23.51,9.531 22.953,8.734 21.987,8.734 L9.864,8.734 C8.897,8.734 8.312,9.584 7.961,10.498 L5.957,16.103 L5.641,16.103 C4.458,16.103 3.5,17.057 3.5,18.24 L3.5,25.09 L5.315,25.09 C5.309,25.648 5.376,26.179 5.376,26.433 L5.376,26.556 C5.376,27.914 6.493,29 7.864,29 C9.233,29 10.346,27.914 10.346,26.556 L10.346,26.433 C10.346,26.23 10.391,25.888 10.406,25.482 L10.406,25.09 L21.44,25.09 C21.45,25.773 21.459,26.357 21.459,26.433 L21.459,26.556 C21.459,27.914 22.571,29 23.938,29 C25.319,29 26.43,27.914 26.43,26.556 L26.43,26.433 C26.43,26.179 26.496,25.648 26.491,25.09 L28.5,25.09 L28.5,18.24 C28.5,17.057 27.539,16.103 26.368,16.103 L26.368,16.103 L26.368,16.103 L26.368,16.103 Z M9.075,15.824 L10.586,11.176 L21.551,11.176 L23.061,15.824 L9.075,15.824 L9.075,15.824 L9.075,15.824 L9.075,15.824 Z M9.905,20.802 C9.905,21.92 9,22.822 7.893,22.822 C6.78,22.822 5.877,21.92 5.877,20.802 C5.877,19.697 6.78,18.798 7.893,18.798 C9,18.798 9.905,19.697 9.905,20.802 C9.905,20.802 9.905,19.697 9.905,20.802 L9.905,20.802 L9.905,20.802 Z M25.821,20.802 C25.821,21.92 24.924,22.822 23.811,22.822 C22.704,22.822 21.799,21.92 21.799,20.802 C21.799,19.697 22.704,18.798 23.811,18.798 C24.924,18.798 25.821,19.697 25.821,20.802 L25.821,20.802 Z M25.821,20.802" id="car--title-grey" fill="#3A434E" sketch:type="MSShapeGroup"></path>
    </g>
</svg>
